!!!OTL: AUS IST DAS LIEDCHEN
!!!ARE: Europa, Mitteleuropa, Deutschland, Hessen; Ober - Lahnkreis; Limburg
!!!SCT: E0666
!!!YEM: Copyright 1995, estate of Helmut Schaffrath.
**kern
*ICvox
*Ivox
*M2/4
*k[b-]
*F:
=1
{8c
8c
8A
8A
=2
8G
8G
8F}
{8F
=3
8c
8c
8A
8A
=4
8G
8G
8F
8r}
=5
{8c
8c
8c
8c
=6
8d
8d
4d}
=7
{8c
8c
8d
8e
=8
8f
8f
4f}
==
!!!AGN: Liebes - Lied
!!!ONB: ESAC (Essen Associative Code) Database: ERK2
!!!AMT: simple duple
!!!AIN: vox
!!!EED: Helmut Schaffrath
!!!EEV: 1.0
*-
